tools/download-figma-icons/icons/outlined-medium/battery.svg

<svg width="24" height="24" viewBox="0 0 24 24" fill="none" xmlns="http://www.w3.org/2000/svg">
<path fill-rule="evenodd" clip-rule="evenodd" d="M5.99994 4.50225C5.99994 4.0875 6.33744 3.75 6.75219 3.75H8.99994V1.5H14.9999V3.75H17.2477C17.6624 3.75 17.9999 4.0875 17.9999 4.50225V21.7477C17.9999 22.1625 17.6624 22.5 17.2477 22.5H6.75219C6.33744 22.5 5.99994 22.1625 5.99994 21.7477V4.50225ZM6.75219 24H17.2477C18.4897 24 19.4999 22.9897 19.4999 21.7477V4.50225C19.4999 3.26025 18.4897 2.25 17.2477 2.25H16.4999V1.5C16.4999 0.67275 15.8272 0 14.9999 0H8.99994C8.17344 0 7.49994 0.67275 7.49994 1.5V2.25H6.75219C5.51019 2.25 4.49994 3.26025 4.49994 4.50225V21.7477C4.49994 22.9897 5.51019 24 6.75219 24ZM12.6471 11.9457L14.7869 12.6072C14.9901 12.6695 15.0659 12.9072 14.9339 13.0685L9.52487 19.3857C9.30812 19.6505 8.87761 19.4157 8.99987 19.1007L11.2319 13.973L9.11986 12.4182C8.97437 12.311 8.95862 12.1055 9.08686 11.9795L14.5506 6.84121C14.7876 6.60721 15.1356 6.86371 14.9999 7.16371L12.6471 11.9457Z" fill="black"/>
</svg>

<svg width="24" height="24" viewBox="0 0 24 24" fill="none" xmlns="http://www.w3.org/2000/svg"><path fill-rule="evenodd" clip-rule="evenodd" d="M6 4.502c0-.414.337-.752.752-.752H9V1.5h6v2.25h2.248c.414 0 .752.338.752.752v17.246a.753.753 0 0 1-.752.752H6.752A.753.753 0 0 1 6 21.748V4.502ZM6.752 24h10.496a2.255 2.255 0 0 0 2.252-2.252V4.502a2.255 2.255 0 0 0-2.252-2.252H16.5V1.5C16.5.673 15.827 0 15 0H9c-.827 0-1.5.673-1.5 1.5v.75h-.748A2.255 2.255 0 0 0 4.5 4.502v17.246A2.255 2.255 0 0 0 6.752 24Zm5.895-12.054 2.14.661a.29.29 0 0 1 .147.462l-5.41 6.317c-.216.265-.646.03-.524-.285l2.232-5.128-2.112-1.555a.287.287 0 0 1-.033-.438l5.463-5.14c.237-.234.585.023.449.323l-2.353 4.782Z" fill="currentColor"/></svg>
